src/Assets/icons/07-video/video-icon-nobg.svg

<svg viewBox="0 0 2000 2000" xmlns="http://www.w3.org/2000/svg" xml:space="preserve" style="fill-rule:evenodd;clip-rule:evenodd;stroke-linejoin:round;stroke-miterlimit:2">
    <path style="fill:none" d="M2208.33 0h2000v2000h-2000z" transform="translate(-2208.333)"/>
    <path d="M1066.94 950.354a1.01 1.01 0 0 0-1.01-1.013H878.572c-.559 0-1.013.454-1.013 1.013v48.633c0 .559.454 1.013 1.013 1.013h187.358c.56 0 1.01-.454 1.01-1.013v-48.633Z" style="fill:#172d4f" transform="translate(-1831.85 -1003.12) scale(2.91267)"/>
    <path d="M1066.94 956.94c0-4.194-.39-7.599-.87-7.599H878.437c-.485 0-.878 3.405-.878 7.599v35.461c0 4.194.393 7.599.878 7.599h187.633c.48 0 .87-3.405.87-7.599V956.94Z" style="fill:#172d4f" transform="matrix(8.40958 0 0 .97187 -7176.25 955.03)"/>
    <path d="M4189.7 188.195c0-58.895-47.81-106.71-106.71-106.71H2333.01c-58.9 0-106.71 47.815-106.71 106.71V1752.73c0 58.89 47.81 106.71 106.71 106.71h1749.98c58.9 0 106.71-47.82 106.71-106.71V188.195Z" style="fill:#172d4f" transform="matrix(1 0 0 1 -2207.998 .004)"/>
    <path d="M1302.5 569.901c0-6.932-7.92-12.56-17.68-12.56H659.686c-9.761 0-17.686 5.628-17.686 12.56V963.44c0 6.932 7.925 12.56 17.686 12.56h625.134c9.76 0 17.68-5.628 17.68-12.56V569.901Z" style="fill:#cdd7e4" transform="matrix(2.72148 0 0 3.83226 -1645.965 -1967.613)"/>
    <circle cx="289.99" cy="272" r="96" style="fill:#e5bc71" transform="matrix(4.83201 0 0 4.83201 -401.232 -364.01)"/>
    <path d="m990.236 816 75.714 151.426H914.523L990.236 816Z" style="fill:#172d4f" transform="matrix(0 3.6423 -3.03898 0 3767.74 -2647.618)"/>
</svg>

<?xml version="1.0" encoding="UTF-8" standalone="no"?>
<!DOCTYPE svg PUBLIC "-//W3C//DTD SVG 1.1//EN" "http://www.w3.org/Graphics/SVG/1.1/DTD/svg11.dtd">
<svg width="100%" height="100%" viewBox="0 0 2000 2000" version="1.1" xmlns="http://www.w3.org/2000/svg" xmlns:xlink="http://www.w3.org/1999/xlink" xml:space="preserve" xmlns:serif="http://www.serif.com/" style="fill-rule:evenodd;clip-rule:evenodd;stroke-linejoin:round;stroke-miterlimit:2;">
    <g transform="matrix(1,0,0,1,-2208,0)">
        <g id="screen_button-icon" transform="matrix(1,0,0,1,-0.333333,0)">
            <rect x="2208.33" y="0" width="2000" height="2000" style="fill:none;"/>
            <g id="Fernseher" transform="matrix(2.91267,0,0,2.91267,376.483,-1003.12)">
                <path d="M1066.94,950.354C1066.94,949.795 1066.49,949.341 1065.93,949.341L878.572,949.341C878.013,949.341 877.559,949.795 877.559,950.354L877.559,998.987C877.559,999.546 878.013,1000 878.572,1000L1065.93,1000C1066.49,1000 1066.94,999.546 1066.94,998.987L1066.94,950.354Z" style="fill:rgb(23,45,79);"/>
                <g transform="matrix(2.88724,0,0,0.333671,-1834.88,672.287)">
                    <path d="M1066.94,956.94C1066.94,952.746 1066.55,949.341 1066.07,949.341L878.437,949.341C877.952,949.341 877.559,952.746 877.559,956.94L877.559,992.401C877.559,996.595 877.952,1000 878.437,1000L1066.07,1000C1066.55,1000 1066.94,996.595 1066.94,992.401L1066.94,956.94Z" style="fill:rgb(23,45,79);"/>
                </g>
                <g transform="matrix(0.343327,0,0,0.343327,-129.142,344.4)">
                    <path d="M4189.7,188.195C4189.7,129.3 4141.89,81.485 4082.99,81.485C4082.99,81.485 2333.01,81.485 2333.01,81.485C2274.11,81.485 2226.3,129.3 2226.3,188.195L2226.3,1752.73C2226.3,1811.62 2274.11,1859.44 2333.01,1859.44C2333.01,1859.44 4082.99,1859.44 4082.99,1859.44C4141.89,1859.44 4189.7,1811.62 4189.7,1752.73L4189.7,188.195Z" style="fill:rgb(23,45,79);"/>
                </g>
                <g transform="matrix(0.934359,0,0,1.31572,63.8197,-331.137)">
                    <path d="M1302.5,569.901C1302.5,562.969 1294.58,557.341 1284.82,557.341L659.686,557.341C649.925,557.341 642,562.969 642,569.901L642,963.44C642,970.372 649.925,976 659.686,976L1284.82,976C1294.58,976 1302.5,970.372 1302.5,963.44L1302.5,569.901Z" style="fill:rgb(205,215,228);"/>
                </g>
                <g id="Videobutton" transform="matrix(1.2505,0,0,1.2505,-221.213,-446.76)">
                    <g transform="matrix(1.32664,0,0,1.32664,569.679,532.734)">
                        <circle cx="289.99" cy="272" r="96" style="fill:rgb(229,188,113);"/>
                    </g>
                    <g transform="matrix(6.12323e-17,1,-0.834359,5.10897e-17,1714.28,-94.2356)">
                        <path d="M990.236,816L1065.95,967.426L914.523,967.426L990.236,816Z" style="fill:rgb(23,45,79);"/>
                    </g>
                </g>
            </g>
        </g>
    </g>
</svg>
